picto/accessible-left-framed.svg

<svg class="color-immutable" width="30" height="30" viewBox="0 0 30 30" fill="none" xmlns="http://www.w3.org/2000/svg"><path d="M30 0H0V30H30V0Z" fill="#2D327D"/><path d="M25.5 3C26.325 3 27 3.675 27 4.5V25.5C27 26.325 26.325 27 25.5 27H4.5C3.675 27 3 26.325 3 25.5V4.5C3 3.675 3.675 3 4.5 3H25.5ZM25.5 2.625H4.5C3.46613 2.625 2.625 3.46613 2.625 4.5V25.5C2.625 26.5339 3.46613 27.375 4.5 27.375H25.5C26.5339 27.375 27.375 26.5339 27.375 25.5V4.5C27.375 3.46613 26.5339 2.625 25.5 2.625Z" fill="white"/><path d="M15.8925 7.62884C15.8925 8.51121 16.6076 9.22634 17.49 9.22634C18.3723 9.22634 19.0876 8.51121 19.0876 7.62884C19.0876 6.74639 18.3723 6.03119 17.49 6.03119C16.6076 6.03119 15.8925 6.74646 15.8925 7.62884Z" fill="white"/><path d="M8.72873 21.0832L10.8896 16.0027C11.0393 15.6511 11.3837 15.4228 11.766 15.4228H15.455L15.653 13.8351H12.5985C12.277 13.8351 12.0167 13.5745 12.0167 13.2531C12.0167 12.9317 12.277 12.6708 12.5985 12.6708H15.7979L16.0404 10.7259C16.1308 10.0009 16.7918 9.48636 17.5169 9.57658C18.2419 9.66696 18.7565 10.328 18.666 11.053L18.032 16.1409C18.0245 16.2015 17.9993 16.356 17.9993 16.3756C17.9993 16.9018 17.573 17.3281 17.0468 17.3281H12.3959L10.4818 21.8287C10.3275 22.1911 9.97523 22.4086 9.60465 22.4086C9.48038 22.4086 9.354 22.384 9.23235 22.3324C8.74853 22.1266 8.523 21.5671 8.72873 21.0832Z" fill="white"/><path d="M11.6316 20.4355C12.4173 21.766 13.8649 22.6593 15.522 22.6593C18.0161 22.6593 20.0377 20.6375 20.0377 18.1436C20.0377 16.8905 19.527 15.757 18.7026 14.9388L18.8826 13.3868C20.3732 14.4418 21.3474 16.1785 21.3474 18.1436C21.3474 21.361 18.7392 23.9689 15.522 23.9689C13.7044 23.9689 12.0816 23.1361 11.0132 21.8317L11.6316 20.4355Z" fill="white"/></svg>

<svg class="color-immutable" width="30" height="30" viewBox="0 0 30 30" fill="none" xmlns="http://www.w3.org/2000/svg"><g clip-path="url(#a)"><path d="M30 0H0v30h30V0Z" fill="#2D327D"/><path d="M25.5 3c.825 0 1.5.675 1.5 1.5v21c0 .825-.675 1.5-1.5 1.5h-21c-.825 0-1.5-.675-1.5-1.5v-21C3 3.675 3.675 3 4.5 3h21Zm0-.375h-21A1.877 1.877 0 0 0 2.625 4.5v21c0 1.034.841 1.875 1.875 1.875h21a1.877 1.877 0 0 0 1.875-1.875v-21A1.877 1.877 0 0 0 25.5 2.625Z" fill="#fff"/><path d="M15.893 7.629a1.597 1.597 0 1 0 3.194 0 1.597 1.597 0 0 0-3.194 0ZM8.729 21.083l2.16-5.08a.952.952 0 0 1 .877-.58h3.689l.198-1.588h-3.055a.582.582 0 0 1 0-1.164h3.2l.242-1.945a1.323 1.323 0 0 1 2.626.327l-.634 5.088c-.008.06-.033.215-.033.235a.952.952 0 0 1-.952.952h-4.651l-1.914 4.5a.953.953 0 0 1-1.753-.745Z" fill="#fff"/><path d="M11.632 20.436a4.516 4.516 0 1 0 7.071-5.497l.18-1.552a5.825 5.825 0 1 1-7.87 8.445l.619-1.396Z" fill="#fff"/></g><defs><clipPath id="a"><path fill="#fff" d="M0 0h30v30H0z"/></clipPath></defs></svg>
